img/card5.svg

<svg class="ui-homes-icon ui-homes-icon--da-top-sales font-color--HOME-DA-TOP-SALES" width="100%" height="100%" viewBox="0 0 100 100" fill="none" xmlns="http://www.w3.org/2000/svg"><circle cx="53" cy="53" r="45.5403" fill="#EEEEEE"></circle><path d="M43.3986 30.9436V19.765C43.3986 15.6491 46.7352 12.3125 50.851 12.3125H54.9277C59.0436 12.3125 62.3801 15.6491 62.3801 19.765V30.9436" stroke="#333333" stroke-width="1.96875"></path><mask id="path-3-inside-1_562_4242" fill="white"><path fill-rule="evenodd" clip-rule="evenodd" d="M40.7183 25.7209C40.7263 25.3643 41.0177 25.0793 41.3744 25.0793H87.9453C88.2763 25.0793 88.5555 25.3259 88.5965 25.6544L96.3019 87.4333C96.3507 87.8242 96.0464 88.1697 95.6524 88.1708L39.9903 88.3137C39.6215 88.3147 39.3243 88.0115 39.3326 87.6428L40.7183 25.7209Z"></path></mask><path fill-rule="evenodd" clip-rule="evenodd" d="M40.7183 25.7209C40.7263 25.3643 41.0177 25.0793 41.3744 25.0793H87.9453C88.2763 25.0793 88.5555 25.3259 88.5965 25.6544L96.3019 87.4333C96.3507 87.8242 96.0464 88.1697 95.6524 88.1708L39.9903 88.3137C39.6215 88.3147 39.3243 88.0115 39.3326 87.6428L40.7183 25.7209Z" fill="#FFE600"></path><path d="M39.9903 88.3137L39.9802 84.3762L39.9903 88.3137ZM96.3019 87.4333L100.209 86.946L96.3019 87.4333ZM95.6524 88.1708L95.6625 92.1082L95.6524 88.1708ZM88.5965 25.6544L92.5037 25.167L92.5037 25.167L88.5965 25.6544ZM41.3744 29.0168H87.9453V21.1418H41.3744V29.0168ZM84.6893 26.1417L92.3947 87.9206L100.209 86.946L92.5037 25.167L84.6893 26.1417ZM95.6423 84.2333L39.9802 84.3762L40.0004 92.2512L95.6625 92.1082L95.6423 84.2333ZM43.2691 87.7309L44.6548 25.809L36.7818 25.6328L35.3961 87.5547L43.2691 87.7309ZM39.9802 84.3762C41.8245 84.3715 43.3103 85.8871 43.2691 87.7309L35.3961 87.5547C35.3383 90.1359 37.4185 92.2578 40.0004 92.2512L39.9802 84.3762ZM92.3947 87.9206C92.1509 85.9658 93.6724 84.2383 95.6423 84.2333L95.6625 92.1082C98.4204 92.1012 100.551 89.6827 100.209 86.946L92.3947 87.9206ZM87.9453 29.0168C86.2901 29.0168 84.8941 27.7841 84.6893 26.1417L92.5037 25.167C92.2169 22.8677 90.2625 21.1418 87.9453 21.1418V29.0168ZM41.3744 21.1418C38.8774 21.1418 36.8377 23.1364 36.7818 25.6328L44.6548 25.809C44.6149 27.5922 43.158 29.0168 41.3744 29.0168V21.1418Z" fill="white" mask="url(#path-3-inside-1_562_4242)"></path><path d="M29.655 26.8788C29.6541 26.6954 29.6523 26.3134 29.6486 25.5176L29.6549 26.8787M29.655 26.8788L29.4038 26.8045C29.4823 26.8346 29.5634 26.8589 29.6466 26.877C29.6494 26.8776 29.6522 26.8782 29.6549 26.8787M29.655 26.8788C29.655 26.8788 29.655 26.8787 29.6549 26.8787M29.6549 26.8787L29.6557 27.0481L29.6479 27.0481M18.087 87.8719L18.0903 86.2693L18.0904 86.2686C18.0901 86.4001 18.0893 86.7791 18.087 87.8719ZM20.1069 86.2037L31.363 27.0402L32.1731 27.0364L32.2005 27.0363L32.228 27.0361L32.2555 27.036L32.2832 27.0359L32.3109 27.0358L32.3387 27.0356L32.3666 27.0355L32.3946 27.0354L32.4227 27.0352L32.4509 27.0351L32.4791 27.035L32.5075 27.0348L32.5359 27.0347L32.5644 27.0346L32.5929 27.0344L32.6216 27.0343L32.6503 27.0342L32.6791 27.034L32.708 27.0339L32.737 27.0338L32.766 27.0336L32.7951 27.0335L32.8243 27.0334L32.8535 27.0332L32.8829 27.0331L32.9123 27.033L32.9417 27.0328L32.9712 27.0327L33.0008 27.0325L33.0305 27.0324L33.0602 27.0323L33.09 27.0321L35.0827 27.0229L38.4931 27.007L38.4795 27.7146L38.3411 34.8943C38.2268 40.8356 38.0748 48.7564 37.9242 56.6739C37.7737 64.5914 37.6244 72.506 37.5155 78.4349C37.4611 81.3992 37.4168 83.8679 37.3874 85.5926C37.3831 85.8421 37.3792 86.0762 37.3756 86.2941C36.9748 86.289 36.5252 86.2842 36.0372 86.2796C34.0437 86.2608 31.3845 86.2455 28.7272 86.2336C26.0691 86.2216 23.41 86.2129 21.4156 86.2072C20.9382 86.2059 20.499 86.2047 20.1069 86.2037ZM29.3609 27.03C29.4176 27.0385 29.4691 27.0444 29.4955 27.0473C29.5811 27.0568 29.6939 27.0671 29.8089 27.0745C29.9072 27.0808 30.0782 27.09 30.2487 27.0828C30.2502 27.0827 30.2518 27.0827 30.2537 27.0826C30.295 27.0809 30.4264 27.0756 30.5935 27.0437L29.3609 27.03Z" fill="white" stroke="white" stroke-width="3.9375"></path><path d="M86.9352 87.6958C87.0325 87.827 87.0049 88.0122 86.8737 88.1095C86.8227 88.1472 86.761 88.1676 86.6976 88.1676H18.0864C17.9231 88.1676 17.7907 88.0352 17.7907 87.8719C17.7907 87.8533 17.7925 87.8348 17.7959 87.8166L24.42 53M46.1194 25.0794H29.6466C29.5635 25.0794 30.2975 25.1579 30.2539 25.0871C30.2104 25.0163 30.139 24.9672 30.0573 24.9516C29.8969 24.9211 29.7421 25.0264 29.7116 25.1869L25.4188 47.75" stroke="#333333" stroke-width="1.96875"></path><path d="M29.6408 25.3199C29.6713 25.1594 29.8262 25.0541 29.9866 25.0846C30.0683 25.1001 30.1396 25.1493 30.1832 25.2201L34.2994 31.9091C34.385 32.0482 34.5672 32.0915 34.7063 32.0059C34.7336 31.9891 34.758 31.968 34.7785 31.9434L40.1889 25.4509C40.2934 25.3254 40.4799 25.3085 40.6054 25.4131C40.6235 25.4281 40.6397 25.4453 40.6537 25.4642" stroke="#333333" stroke-width="1.96875"></path><path d="M93.8898 68.0937L88.5965 25.6544C88.5556 25.3259 88.2764 25.0793 87.9453 25.0793H41.3745C41.0177 25.0793 40.7263 25.3643 40.7184 25.7209L39.3326 87.6428C39.3244 88.0115 39.6215 88.3147 39.9904 88.3137L95.6525 88.1708C96.0465 88.1697 96.3508 87.8242 96.302 87.4333L95.7148 82.725M94.5447 73.3437L95.0358 77.2812" stroke="#333333" stroke-width="1.96875"></path><path d="M18.0249 88.3154L30.002 81.8093L39.3176 88.3154" stroke="#333333" stroke-width="1.96875"></path><path d="M29.8541 81.8093L34.7622 32.1881" stroke="#333333" stroke-width="1.96875"></path><path d="M57.0614 30.9436V19.765C57.0614 15.6491 60.398 12.3125 64.5138 12.3125H68.5905C72.7063 12.3125 76.0429 15.6491 76.0429 19.765V30.9436" stroke="#333333" stroke-width="1.96875"></path><path fill-rule="evenodd" clip-rule="evenodd" d="M87.0574 39.2241C87.232 39.2241 87.3994 39.2937 87.5226 39.4175L101.793 53.7608C102.048 54.0172 102.048 54.4319 101.792 54.6877L89.7738 66.7059C89.517 66.9626 89.1006 66.9621 88.8445 66.7047L74.5592 52.3465C74.4463 52.233 74.3787 52.0821 74.3693 51.9222L73.6632 39.9188C73.6411 39.5419 73.9408 39.2241 74.3184 39.2241L87.0574 39.2241Z" fill="white" stroke="#333333" stroke-width="1.96875"></path><ellipse cx="81.6479" cy="46.6875" rx="2.63607" ry="2.63607" fill="white" stroke="#333333" stroke-width="1.96875"></ellipse><path d="M71.5522 25.0289C74.5096 20.8887 78.9046 23.3491 80.4578 26.2946C82.7877 30.7128 83.3702 36.6038 81.6228 46.9131" stroke="#333333" stroke-width="1.96875"></path><path fill-rule="evenodd" clip-rule="evenodd" d="M54.7196 62.6492C55.4949 63.9529 56.5708 65.0629 59.2585 65.0773C62.8204 65.2231 63.9629 63.31 64.4119 62.255C64.8615 61.1994 65.4324 59.0176 69.1048 59.0945C71.7108 59.149 72.9808 61.1828 73.4999 62.3592C73.6886 62.7886 73.8066 63.2468 73.8666 63.7164L73.9535 64.4138L74.7867 71.1011L75.3038 79.6892C75.3038 79.6892 76.0322 79.9161 76.0322 81.525V86.5851C76.0322 87.5099 75.2215 88.7602 74.0529 88.7602H20.4393C13.5457 88.7602 7.22031 86.6042 5.97239 83.3543C5.8266 82.9746 5.75011 82.58 5.75011 82.1722C5.75011 79.5772 7.17633 77.951 8.13044 77.1526C8.55991 76.7933 9.0518 76.5367 9.58261 76.3797C11.1701 75.9087 15.51 74.5953 18.4798 73.4324C19.6916 72.9582 22.1782 71.8312 25.1635 70.4201C25.1635 70.4201 39.5462 63.482 44.0381 60.8143C44.0381 60.8143 44.3662 60.6068 44.4972 60.5181C49.1954 57.3175 52.7882 53.7479 54.3819 52.0579C54.9046 51.5033 55.7809 51.5831 56.2085 52.2194C56.7721 53.0574 57.4234 54.3134 57.6347 55.8572C58.0321 59.017 56.0243 62.1366 54.5283 62.8316" fill="white"></path><path d="M54.7196 62.6492C55.4949 63.9529 56.5708 65.0629 59.2585 65.0773C62.8204 65.2231 63.9629 63.31 64.4119 62.255C64.8615 61.1994 65.4324 59.0176 69.1048 59.0945C71.7108 59.149 72.9808 61.1828 73.4999 62.3592C73.6886 62.7886 73.8066 63.2468 73.8666 63.7164L73.9535 64.4138L74.7867 71.1011L75.3038 79.6892C75.3038 79.6892 76.0322 79.9161 76.0322 81.525V86.5851C76.0322 87.5099 75.2215 88.7602 74.0529 88.7602H20.4393C13.5457 88.7602 7.22031 86.6042 5.97239 83.3543C5.8266 82.9746 5.75011 82.58 5.75011 82.1722C5.75011 79.5772 7.17633 77.951 8.13044 77.1526C8.55991 76.7933 9.0518 76.5367 9.58261 76.3797C11.1701 75.9087 15.51 74.5953 18.4798 73.4324C19.6916 72.9582 22.1782 71.8312 25.1635 70.4201C25.1635 70.4201 39.5462 63.482 44.0381 60.8143C44.0381 60.8143 44.3662 60.6068 44.4972 60.5181C49.1954 57.3175 52.7882 53.7479 54.3819 52.0579C54.9046 51.5033 55.7809 51.5831 56.2085 52.2194C56.7721 53.0574 57.4234 54.3134 57.6347 55.8572C58.0321 59.017 56.0243 62.1366 54.5283 62.8316" stroke="#333333" stroke-width="1.96875"></path><path d="M75.4537 79.6892C75.3009 79.7212 64.2484 79.754 64.1023 79.7875C61.5536 80.3718 61.9306 81.1006 60.6674 82.2197C59.4325 83.3138 58.1148 83.7823 57.0449 83.6176L6.32871 84.359" stroke="#333333" stroke-width="1.96875"></path><path d="M18.0009 73.5699C20.2544 74.7347 22.8368 74.9358 25.2244 74.1307C30.4957 72.354 42.2625 67.2983 46.2038 65.057C47.5999 64.2627 47.8041 62.5255 48.2712 61.3198C48.5827 60.5161 49.1071 59.8152 49.8149 59.3829C50.58 58.9154 51.6201 58.677 52.7209 59.589C53.7411 60.4345 54.1785 61.6906 54.8457 62.7981" stroke="#333333" stroke-width="1.96875"></path><path d="M31.6298 73.8148L37.5183 81.9658L48.6803 81.8082L37.1705 71.6518L31.6298 73.8148Z" fill="#FFE600" stroke="white" stroke-width="3.9375"></path><path fill-rule="evenodd" clip-rule="evenodd" d="M36.5221 83.9488L30.0123 74.9378L28.5442 72.9059L37.5729 69.3812L53.8051 83.7048L36.5221 83.9488Z" stroke="#333333" stroke-width="1.96875"></path><path d="M10.4012 76.061C10.669 76.3698 10.9749 76.6812 11.32 76.9736C11.7683 77.3538 12.2819 77.6993 12.8626 77.9596C15.4348 79.114 17.1503 78.1379 22.0377 79.4687C23.7829 79.9446 25.0912 81.2577 26.0512 82.7491C26.3032 83.1405 26.5318 83.5444 26.737 83.9488" stroke="#333333" stroke-width="1.96875"></path><path d="M41.1746 66.5529L37.0958 60.2074" stroke="#333333" stroke-width="1.96875"></path><path d="M35.0597 69.3813L30.9809 63.0358" stroke="#333333" stroke-width="1.96875"></path><path d="M28.5792 72.8502L24.5004 66.5046" stroke="#333333" stroke-width="1.96875"></path></svg>

<svg width="100" height="100" viewBox="0 0 105 105" fill="none" xmlns="http://www.w3.org/2000/svg"><circle cx="53" cy="53" r="45.54" fill="#EEE"/><path d="M43.399 30.944V19.765a7.452 7.452 0 0 1 7.452-7.453h4.077a7.452 7.452 0 0 1 7.452 7.453v11.179" stroke="#333" stroke-width="1.969"/><mask id="a" fill="#fff"><path fill-rule="evenodd" clip-rule="evenodd" d="M40.718 25.72a.656.656 0 0 1 .656-.64h46.571c.331 0 .61.246.652.574l7.705 61.78a.656.656 0 0 1-.65.737l-55.662.143a.656.656 0 0 1-.657-.671l1.385-61.922Z"/></mask><path fill-rule="evenodd" clip-rule="evenodd" d="M40.718 25.72a.656.656 0 0 1 .656-.64h46.571c.331 0 .61.246.652.574l7.705 61.78a.656.656 0 0 1-.65.737l-55.662.143a.656.656 0 0 1-.657-.671l1.385-61.922Z" fill="#FFE600"/><path d="m39.99 88.314-.01-3.938.01 3.938Zm56.312-.88 3.907-.488-3.907.487Zm-.65.737.01 3.937-.01-3.937Zm-7.055-62.517 3.907-.487-3.907.487Zm-47.223 3.363h46.571v-7.875h-46.57v7.875Zm43.315-2.875 7.706 61.779 7.814-.975-7.705-61.779-7.815.975Zm10.953 58.091-55.662.143.02 7.875 55.662-.143-.02-7.875ZM43.27 87.731l1.386-61.922-7.873-.176-1.386 61.922 7.873.176Zm-3.289-3.355a3.281 3.281 0 0 1 3.29 3.355l-7.874-.176A4.594 4.594 0 0 0 40 92.25l-.02-7.875Zm52.415 3.545a3.281 3.281 0 0 1 3.247-3.688l.02 7.875a4.593 4.593 0 0 0 4.547-5.162l-7.814.975Zm-4.45-58.904a3.281 3.281 0 0 1-3.256-2.875l7.815-.975a4.594 4.594 0 0 0-4.559-4.025v7.875Zm-46.57-7.875a4.594 4.594 0 0 0-4.593 4.49l7.873.177a3.281 3.281 0 0 1-3.28 3.208v-7.875Z" fill="#fff" mask="url(#a)"/><path d="m29.655 26.879-.006-1.361.006 1.36m0 0-.251-.073a1.669 1.669 0 0 0 .25.074m.001 0v.17h-.007M18.087 87.871l.003-1.603-.003 1.603Zm2.02-1.668L31.363 27.04l.81-.004h.278l.028-.001h.171l.03-.001h.203l.03-.001h.177l1.993-.01 3.41-.016-.014.708-.138 7.18-.417 21.779c-.15 7.917-.3 15.832-.408 21.76a5966.895 5966.895 0 0 0-.14 7.86 1600.641 1600.641 0 0 0-8.648-.06c-2.659-.012-5.318-.021-7.312-.027l-1.31-.003ZM29.36 27.03l.134.017a6.022 6.022 0 0 0 .754.036h.005c.041-.002.172-.007.34-.04l-1.233-.013Z" fill="#fff" stroke="#fff" stroke-width="3.938"/><path d="M86.935 87.696a.296.296 0 0 1-.237.472H18.086a.296.296 0 0 1-.29-.351L24.42 53m21.7-27.92H29.646c-.083 0 .65.078.607.007a.296.296 0 0 0-.542.1L25.419 47.75" stroke="#333" stroke-width="1.969"/><path d="M29.64 25.32a.296.296 0 0 1 .543-.1l4.116 6.69a.296.296 0 0 0 .48.033l5.41-6.492a.296.296 0 0 1 .465.013m53.236 42.63-5.293-42.44a.656.656 0 0 0-.652-.575h-46.57a.656.656 0 0 0-.657.642l-1.385 61.922a.656.656 0 0 0 .657.67l55.663-.142a.656.656 0 0 0 .649-.738l-.587-4.708m-1.17-9.381.49 3.937m-77.01 11.034 11.977-6.506 9.316 6.506m-9.464-6.505 4.908-49.622" stroke="#333" stroke-width="1.969"/><path d="M57.061 30.944V19.765a7.452 7.452 0 0 1 7.453-7.453h4.077a7.452 7.452 0 0 1 7.452 7.453v11.179" stroke="#333" stroke-width="1.969"/><path fill-rule="evenodd" clip-rule="evenodd" d="M87.057 39.224c.175 0 .342.07.466.194l14.27 14.343a.656.656 0 0 1-.001.927L89.774 66.706a.656.656 0 0 1-.93-.001L74.56 52.347a.656.656 0 0 1-.19-.425l-.706-12.003a.656.656 0 0 1 .655-.695h12.74Z" fill="#fff" stroke="#333" stroke-width="1.969"/><circle cx="81.648" cy="46.688" fill="#fff" stroke="#333" stroke-width="1.969" r="2.636"/><path d="M71.552 25.029c2.958-4.14 7.353-1.68 8.906 1.266 2.33 4.418 2.912 10.309 1.165 20.618" stroke="#333" stroke-width="1.969"/><path fill-rule="evenodd" clip-rule="evenodd" d="M54.72 62.65c.775 1.303 1.85 2.413 4.538 2.427 3.562.146 4.705-1.767 5.154-2.822.45-1.056 1.02-3.237 4.693-3.16 2.606.054 3.876 2.088 4.395 3.264.189.43.307.888.367 1.357l.087.698.833 6.687.517 8.588s.728.227.728 1.836v5.06c0 .925-.81 2.175-1.98 2.175H20.44c-6.893 0-13.219-2.156-14.467-5.406a3.276 3.276 0 0 1-.222-1.182c0-2.595 1.426-4.221 2.38-5.02a4.03 4.03 0 0 1 1.453-.772c1.587-.471 5.927-1.785 8.897-2.948 1.212-.474 3.698-1.6 6.683-3.012 0 0 14.383-6.938 18.875-9.606 0 0 .328-.207.46-.296 4.697-3.2 8.29-6.77 9.884-8.46a1.162 1.162 0 0 1 1.827.161c.563.838 1.214 2.094 1.426 3.638.397 3.16-1.61 6.28-3.107 6.975" fill="#fff"/><path d="M54.72 62.65c.775 1.303 1.85 2.413 4.538 2.427 3.562.146 4.705-1.767 5.154-2.822.45-1.056 1.02-3.237 4.693-3.16 2.606.054 3.876 2.088 4.395 3.264.189.43.307.888.367 1.357l.087.698.833 6.687.517 8.588s.728.227.728 1.836v5.06c0 .925-.81 2.175-1.98 2.175H20.44c-6.893 0-13.219-2.156-14.467-5.406a3.276 3.276 0 0 1-.222-1.182c0-2.595 1.426-4.221 2.38-5.02a4.03 4.03 0 0 1 1.453-.772c1.587-.471 5.927-1.785 8.897-2.948 1.212-.474 3.698-1.6 6.683-3.012 0 0 14.383-6.938 18.875-9.606 0 0 .328-.207.46-.296 4.697-3.2 8.29-6.77 9.884-8.46a1.162 1.162 0 0 1 1.827.161c.563.838 1.214 2.094 1.426 3.638.397 3.16-1.61 6.28-3.107 6.975" stroke="#333" stroke-width="1.969"/><path d="M75.454 79.69c-.153.031-11.206.064-11.352.097-2.548.585-2.171 1.314-3.435 2.433-1.235 1.094-2.552 1.562-3.622 1.398l-50.716.741M18 73.57a9.233 9.233 0 0 0 7.224.56c5.272-1.776 17.039-6.832 20.98-9.073 1.396-.794 1.6-2.532 2.067-3.737.312-.804.836-1.505 1.544-1.937.765-.468 1.805-.706 2.906.206 1.02.846 1.458 2.102 2.125 3.21" stroke="#333" stroke-width="1.969"/><path d="m31.63 73.815 5.888 8.15 11.162-.157-11.51-10.156-5.54 2.163Z" fill="#FFE600" stroke="#fff" stroke-width="3.938"/><path clip-rule="evenodd" d="m36.522 83.949-6.51-9.011-1.468-2.032 9.029-3.525 16.232 14.324-17.283.244Z" stroke="#333" stroke-width="1.969"/><path d="M10.401 76.061c.268.309.574.62.919.913.448.38.962.725 1.543.986 2.572 1.154 4.287.178 9.175 1.509 1.745.476 3.053 1.789 4.013 3.28.252.392.48.795.686 1.2m14.438-17.396-4.08-6.346m-2.035 9.174-4.08-6.345m-2.4 9.814-4.08-6.345" stroke="#333" stroke-width="1.969"/></svg>
